public/images/sponsors/PwC.svg

<svg fill="none" height="86" viewBox="0 0 172 86" width="172" xmlns="http://www.w3.org/2000/svg" xmlns:xlink="http://www.w3.org/1999/xlink"><clipPath id="a"><path d="m45 12h82v62h-82z"/></clipPath><g clip-path="url(#a)"><g fill="#231f20"><path d="m100.525 52.9505c-2.6393.4245-3.9886 2.3664-3.9886 5.7839 0 3.4384 1.7973 5.738 4.5526 5.738 1.282 0 2.447-.4245 4.896-1.621v2.7814c-2.939 1.343-4.669 1.7586-7.0371 1.7586-2.5639 0-4.3676-.6785-5.8406-2.1738-1.5095-1.5043-2.2645-3.4912-2.2645-5.7032 0-4.9213 3.6574-8.2512 8.9996-8.2512 3.5476 0 5.9886 1.6149 5.9886 3.9866 0 1.527-1.136 2.5777-2.821 2.5777-.865 0-1.576-.2256-2.485-.7515z"/><path d="m87.5011 59.5145c2.3664-2.9715 3.2021-4.1698 3.2021-5.6288 0-1.4526-1.1577-2.6223-2.7042-2.6223-.9526 0-1.81.4481-2.2286.9138v6.0531l-3.8773 5.1457v-11.7319h-3.686l-6.1275 10.1196v-10.1196h-2.1182l-5.5625 1.3509v1.4163l3.0341.3066v12.4108h3.9217l5.8772-9.6215v9.6215h4.2947z"/><path d="m52.6869 71.9992 2.5431.5634.0001 1.4374h-9.9764v-1.4374l2.2736-.5634v-17.3617h-2.5273v-1.4889l6.1032-1.8467h1.5837v2.0731c2.8583-1.6942 3.8403-1.9942 5.3065-1.9942 3.3861 0 5.8851 3.1109 5.8851 7.4182 0 4.9796-3.3347 8.3296-8.5892 8.3296-.5944 0-1.5831-.036-2.6024-.1528zm0-6.7816c.4175.0196.6006.0196.8644.0196 3.159 0 4.8523-1.9618 4.8523-5.7228 0-3.1839-1.3854-4.8769-3.9426-4.8769-.4254 0-.8723.0515-1.7741.1608z"/></g><path d="m123.126 38.623h3.875v-7.6054h-3.875z" fill="#f13ea0"/><path d="m112.405 19.6025h2.996v-4.6311h-2.996z" fill="#f9a771"/><path d="m97.1748 14.9714h15.2302v-2.9711h-15.2302z" fill="#f68620"/><path d="m97.1748 31.0173v-16.0459h15.2302v4.6312h-15.2302z" fill="#f3611e"/><path d="m115.401 31.0173h7.726v-11.4148h-7.726z" fill="#fab116"/><path d="m115.401 38.623h7.726v-7.6054h-7.726z" fill="#f03f24"/><path d="m112.405 31.0173h2.996v-11.4148h-2.996z" fill="#f57d18"/><path d="m112.405 38.623h2.996v-7.6054h-2.996z" fill="#ef3323"/><path d="m112.405 31.0173h-5.705v-3.8116h-9.5252v3.8116-11.4147h15.2302z" fill="#f14c1c"/><path d="m106.7 38.623h5.705v-7.6054h-5.705z" fill="#ee2822"/><path d="m97.1748 31.0173h9.5252v-3.8116h-9.5252z" fill="#c53a21"/><path d="m97.1748 38.623h9.5252v-7.6054h-9.5252z" fill="#c42523"/><path d="m81.9019 38.6229h15.2726v3.8036h-15.2726z" fill="#c32523"/></g></svg>

<svg width="172" height="86" viewBox="0 0 172 86" fill="none" xmlns="http://www.w3.org/2000/svg">
<g clip-path="url(#clip0)">
<path d="M100.525 52.9505C97.8857 53.375 96.5364 55.3169 96.5364 58.7344C96.5364 62.1728 98.3337 64.4724 101.089 64.4724C102.371 64.4724 103.536 64.0479 105.985 62.8514V65.6328C103.046 66.9758 101.316 67.3914 98.9479 67.3914C96.384 67.3914 94.5803 66.7129 93.1073 65.2176C91.5978 63.7133 90.8428 61.7264 90.8428 59.5144C90.8428 54.5931 94.5002 51.2632 99.8424 51.2632C103.39 51.2632 105.831 52.8781 105.831 55.2498C105.831 56.7768 104.695 57.8275 103.01 57.8275C102.145 57.8275 101.434 57.6019 100.525 57.076V52.9505Z" fill="#231F20"/>
<path d="M87.5011 59.5145C89.8675 56.543 90.7032 55.3447 90.7032 53.8857C90.7032 52.4331 89.5455 51.2634 87.999 51.2634C87.0464 51.2634 86.189 51.7115 85.7704 52.1772V58.2303L81.8931 63.376V51.6441H78.2071L72.0796 61.7637V51.6441H69.9614L64.3989 52.995V54.4113L67.433 54.7179V67.1287H71.3547L77.2319 57.5072V67.1287H81.5266L87.5011 59.5145Z" fill="#231F20"/>
<path d="M52.6869 71.9992L55.23 72.5626L55.2301 74H45.2537V72.5626L47.5273 71.9992V54.6375H45V53.1486L51.1032 51.3019H52.6869V53.375C55.5452 51.6808 56.5272 51.3808 57.9934 51.3808C61.3795 51.3808 63.8785 54.4917 63.8785 58.799C63.8785 63.7786 60.5438 67.1286 55.2893 67.1286C54.6949 67.1286 53.7062 67.0926 52.6869 66.9758V71.9992ZM52.6869 65.2176C53.1044 65.2372 53.2875 65.2372 53.5513 65.2372C56.7103 65.2372 58.4036 63.2754 58.4036 59.5144C58.4036 56.3305 57.0182 54.6375 54.461 54.6375C54.0356 54.6375 53.5887 54.689 52.6869 54.7983V65.2176Z" fill="#231F20"/>
<path d="M123.126 38.623H127.001V31.0176H123.126V38.623Z" fill="#F13EA0"/>
<path d="M112.405 19.6025H115.401V14.9714H112.405V19.6025Z" fill="#F9A771"/>
<path d="M97.1748 14.9714H112.405V12.0003H97.1748V14.9714Z" fill="#F68620"/>
<path d="M97.1748 31.0173V14.9714H112.405V19.6026H97.1748V31.0173Z" fill="#F3611E"/>
<path d="M115.401 31.0173H123.127V19.6025H115.401V31.0173Z" fill="#FAB116"/>
<path d="M115.401 38.623H123.127V31.0176H115.401V38.623Z" fill="#F03F24"/>
<path d="M112.405 31.0173H115.401V19.6025H112.405V31.0173Z" fill="#F57D18"/>
<path d="M112.405 38.623H115.401V31.0176H112.405V38.623Z" fill="#EF3323"/>
<path d="M112.405 31.0173H106.7V27.2057H97.1748V31.0173V19.6026H112.405V31.0173Z" fill="#F14C1C"/>
<path d="M106.7 38.623H112.405V31.0176H106.7V38.623Z" fill="#EE2822"/>
<path d="M97.1748 31.0173H106.7V27.2057H97.1748V31.0173Z" fill="#C53A21"/>
<path d="M97.1748 38.623H106.7V31.0176H97.1748V38.623Z" fill="#C42523"/>
<path d="M81.9019 38.6229H97.1745V42.4265H81.9019V38.6229Z" fill="#C32523"/>
</g>
<defs>
<clipPath id="clip0">
<rect width="82" height="62" fill="white" transform="translate(45 12)"/>
</clipPath>
</defs>
</svg>
